X:13
T:The Fat Cat Scramble
R:jig
C:Paul S. Cranford
O:Cape Breton Island
S:http://www.cranfordpub.com
D:currently unrecorded
B:currently unpublished in book form
Z:psc, (re-formatted,updated 9/17/04)
N:Composed during an election year
H:                                                        copyrights Cranford Publications, SOCAN
L:1/8
M:6/8
Q:300
K:A
A|A,CE DFA|EFG A2 (a/g/|a)ed cBA|Eec dBG|
A,CE DFA|EFG ABc|dBG Eec|dBG A2:|
|:e|aec Bbg|aba efg|aed cBA|Eec dBG|
[1aec Bbg|aba edc|dBG Eec|dBG A2:|
[2ABA ECE|DEF G(3(ABc)|dBG Eec|dBG A2|]
